lib/radiotmp/nrk-hardware-microphone.svg

<svg xmlns="http://www.w3.org/2000/svg" viewBox="0 0 24 24"><path fill="#000" fill-rule="evenodd" d="M8 14V2h8v12H8Zm2-10h4v8h-4V4Z" clip-rule="evenodd"/><path fill="#000" d="M6 12H4v6h7v2H8v2h8v-2h-3v-2h7v-6h-2v4H6v-4Z"/></svg>

<svg width="24" height="24" viewBox="0 0 24 24" fill="none" xmlns="http://www.w3.org/2000/svg">
<path fill-rule="evenodd" clip-rule="evenodd" d="M8 14V2H16V14H8ZM10 4H14V12H10V4Z" fill="black"/>
<path d="M6 12H4V18H11V20H8V22H16V20H13V18H20V12H18V16H6V12Z" fill="black"/>
</svg>
